X:1
T:Liebeslied
T:Liebeslied
T:Op. 13 Bardenklänge H 4 No. 2
T:Johann Kaspar Mertz (tabbed by Classical Guitar Empire)
C:Johann Kaspar Mertz (tabbed by Classical Guitar Empire)
%%score { ( 1 2 5 ) | ( 3 4 6 ) }
L:1/8
Q:1/4=66
M:4/4
K:C
V:1 treble-8 nm="Guitar" snm="Guit."
V:2 treble-8 
V:5 treble-8 
V:3 tab stafflines=6 strings=E2,A2,D3,G3,B3,E4 nostems 
V:4 tab stafflines=6 strings=E2,A2,D3,G3,B3,E4 nostems 
V:6 tab stafflines=6 strings=E2,A2,D3,G3,B3,E4 nostems 
V:1
!p!"^Adagio espressivo" e2 [Gc]d!<(! [ce]/!4!g/!4!g/!mf!b/!<)!!>(! !1!!4![eb]!1!a!>)! | %1
!p! !4!g2 !3!d4 !0![Be]>d |!<(! !2!!3!!1![EAc]2 [EAc]>c"_I" !3!!2!!1![FAc]2 !4![FAd]2!<)! | %3
!f! !arpeggio![E^GBe]2!p! !>!!2![GBe]4 !1![=GBf]2 | e2 [ce]>e !>!!4!a!4!g [^cg]2 | %5
!p! !>!!3!g2 !>!!1!f2!p! !0!!3![G^ce]2 !2!!4![Ad]2 | !4!d2 c2 (3:2:2!1!c2 !0!B (3:2:2!0!e2 !4!d | %7
 [Ec]"_leggiero e"!pp!(3e/c/G/ (6:4:6c/G/!pp!E/G/c/e/ [Ec]2 z2 | %8
!p!"^III" [Bd]2 [Bd]2 [Bd]2 !3!!0![^ce]2 | [Adf]2 !>![_e_a]>g g2 f2 | %10
 e2!<(! g!4!g/!4!c'/!<)!!mf!"_V"!>(! c'2 c'>!4!b!>)! | %11
!p!"_V"!<(! a"_rit."[Q:1/4=56]^a[Q:1/4=46]"^ten." !>![^fb]>!mf!=a!<)!!p![Q:1/4=66]"^[a tempo]" !4!g2 =f2 | %12
 e2 e>e!mf!!>(! a2 g2!>)! |!p! !>!g2 !>!f2!p! [G^ce]2 [Ad]2 | d2 c2 (3:2:2c2 B (3:2:2e2 d | %15
 [Ec]"_leggiero e"!pp!(3e/c/G/ (6:4:6c/G/!pp!E/G/c/e/ [Ec]2 z2 |!p! [Bd]2 [Bd]2 [Bd]2 [^ce]2 | %17
 [Adf]2 !>![_e_a]>g g2 f2 | e2!<(! gg/c'/!<)!!mf!!>(! c'2 c'>!>)!b | %19
 a"_rit."[Q:1/4=56]^a"_ten."[Q:1/4=46] !>![^fb]>=a[Q:1/4=66]"^[a tempo]" g2 !>!=f2 | e2 e>e a2 g2 | %21
!p! !>!g2!mp! !>!f2!p! [G^ce]2 [Ad]2 | d2 c2 (3:2:2c2[Q:1/4=56] B[Q:1/4=46] (3:2:2e2 !fermata!d || %23
"_a tempo"[Q:1/4=66]"^il canto ben marcato"!p! e2 e>e e2 e2 | a2 _a2 g!1!f e>!4!d | %25
!p!(3x/!1!c/c/(3!2!x/c/c/(3!3!x/c/c/(3x/c/c/"^I"(3x/!1!c/c/(3x/!<(!c/c/(3x/c/c/(3x/!4!d/d/!<)! | %26
!f! e2 e4 z !1!f | e2 e>e"^II"!mp!!<(! a2!<)!!f!!>(! g2!>)! | !4!g2"_dol."!mp! !1!f2 !0!e2 x2 | %29
!p! x4 !0!e2 e>!4!d | [Ec]!pp!(3e/c/G/ (6:4:6c/G/E/G/c/e/ [Ec]2 z2 | %31
!p!(3x/d/d/(3x/d/d/(3x/d/d/(3x/d/d/(6:4:6x/B/d/"^cresc."!mp!G/B/d/(6:4:6x/!mf!^c/e/A/c/e/ | %32
!f!(6:4:6!0!x/!2!A/!4!d/!>!!1!f/d/A/(6:4:6x/A/d/!>!f/d/A/(6:4:6x/!0!G/d/!>!f/d/G/ !4!g!1!f | %33
 e2 g2[Q:1/4=61] c'2[Q:1/4=56] b2[Q:1/4=51] | a2[Q:1/4=46] ba[Q:1/4=66]"^a tempo" g2 !1!=f2 | %35
!p! e2 e>e a2 g2 |"_dol."!mp! !>!g2 !>!f2 !>!e2 x2 |!mf! x4 e2 e>!4!d | %38
!p!!<(! cB"_dol."cd!<)!!>(! eBce!>)! |!p! g^fg^g a=gab | c'!p!Bcd eBce | g^fg^g a=gab | %42
 !>!!4!d'!>!!3!^c'!>!!2!=c'e edef | !1!c!pp!!4!ggg !3!gggg | %44
"^V" !4!c'c'!mf!c'!f!c'!ff!"^III" !4!a"_dim."!f!a!mf!a!mp!a |!pp! gggg !4!gggg | %46
 cg[Q:1/4=61]g[Q:1/4=56]g[Q:1/4=51] cg[Q:1/4=46]gg | c2 z2 [ce]2!<(! (!4![cg]!4!c')!<)! | %48
!mp! !fermata!!1!!3!!2![CGec']8 |] %49
V:2
 C2 E2 [CG]2 !1![Gc]2 | !1!G,2 !2!!0![FG]2 G,2 [FG]2 | A,2 !4!G,2 !1!F,2 F,2 | %3
 [E,B,]2 (3!3!E!1!^DE !>!!4!F>E E=D | C2 G2 A,2 A2 | %5
 (3:2:1!0!D3- (3D x x (3!2!E!1!^DE (3!3!F!0!E,!1!F, | !3!G,4 !2!G,4 | C4 C2 z2 | %8
 G,2 G>^F =F2 !2!E2 | D2 C2 B,2 G,2 | C2 B, z A,4 | !0!D4 !3!G,4 | C2 (3C!<(!B,_B,!<)! A,4 | %13
 (3:2:1D3- (3D x x (3E^DE (3FE,F, | G,4 G,4 | C4 C2 z2 | G,2 G>^F =F2 E2 | D2 C2 B,2 G,2 | %18
 C2 B, z A,4 | D4 G,4 | C2 (3CB,_B, A,4 | (3:2:1D3- (3D x x (3E^DE (3FE,F, | G,4 G,4 || C4 C4 | %24
 !>!!^!!1!G,4 x4 | !0!A,EA!4!G, !>!!^!!1!F,!3!F!2!AF | E,4 x4 | C2 x2 A,4 | x6 x !1!F, | %29
 G,EGE !2!G,4 | C4 C2 z2 | G,BGB G, x A, x | D2 !3!C2 !2!B,2 (6:4:6!3!G,/!0!B/!0!G/D/B/G/ | %33
 C2 B,2 A,4 | x2 x2 !2!B,4 | C2 x2 A,4 | x6 x F, | !3!G,EEE !2!G,4 | %38
 [CE](3x/G/E/(3x/G/E/(3x/G/!ff!E/(3x/G/E/(3x/G/E/(3x/G/E/(3x/G/E/ | G,4 x4 | %40
 [CG](3x/G/E/(3x/G/E/(3x/G/E/(3x/G/E/(3x/G/E/(3x/G/E/(3x/G/E/ | G,4 x4 | %42
 !1!!0![CG](3x/G/C/(3x/G/C/(3x/G/E,/ (3F,/A/F/(3x/A/F/(3x/A/F/(3d/A/F/ | x4 !1!G,4 | !3!C4 x4 | %45
 G,4 !2!G,4 | [CEG]G,- G,2 [CEG]G,- G,2 | [CEG]2 z2 [CEG]2 [CEG]2 | x8 |] %49
V:3
 !1!E2 [!3!G,!2!C] !2!D!<(! [!2!C!1!E]/ !1!G/ !1!G/ !1!B/!<)!!>(! [!2!E!1!B] !1!A!>)! | %1
 !1!G2 !2!D4 [!2!B,!1!E]3/2 !2!D/ | %2
!<(! [!4!E,!3!A,!2!C]2 [!4!E,!3!A,!2!C]3/2 !2!C/ [!4!F,!3!A,!2!C]2 [!4!F,!3!A,!2!D]2!<)! | %3
 !arpeggio![!4!E,!3!^G,!2!B,!1!E]2 !>![!3!G,!2!B,!1!E]4 [!3!=G,!2!B,!1!F]2 | %4
 !1!E2 [!2!C!1!E]3/2 !1!E/ !>!!1!A !1!G [!2!^C!1!G]2 | %5
 !>!!1!G2 !>!!1!F2 [!3!G,!2!^C!1!E]2 [!3!A,!2!D]2 | %6
 !2!D2 !2!C2 (3:2:2!2!C2 !2!B, (3:2:2!1!E2 !2!D | %7
 [!4!E,!2!C] (3!1!E/ !2!C/ !3!G,/ (6:4:6!2!C/ !3!G,/ !4!E,/ !3!G,/ !2!C/ !1!E/ [!4!E,!2!C]2 x2 | %8
 [!3!B,!2!D]2 [!3!B,!2!D]2 [!3!B,!2!D]2 [!2!^C!1!E]2 | %9
 [!3!A,!2!D!1!F]2 !>![!2!_E!1!_A]3/2 !1!G/ !1!G2 !1!F2 | %10
 !1!E2!<(! !1!G !1!G/ !1!c/!<)!!>(! !1!c2 !1!c3/2 !1!B/!>)! | %11
!<(! !1!A !1!^A !>![!2!^F!1!B]3/2 !1!=A/!<)! !1!G2 !1!=F2 | %12
 !1!E2 !1!E3/2 !1!E/!>(! !1!A2 !1!G2!>)! | !>!!1!G2 !>!!1!F2 [!3!G,!2!^C!1!E]2 [!3!A,!2!D]2 | %14
 !2!D2 !2!C2 (3:2:2!2!C2 !2!B, (3:2:2!1!E2 !2!D | %15
 [!4!E,!2!C] (3!1!E/ !2!C/ !3!G,/ (6:4:6!2!C/ !3!G,/ !4!E,/ !3!G,/ !2!C/ !1!E/ [!4!E,!2!C]2 x2 | %16
 [!3!B,!2!D]2 [!3!B,!2!D]2 [!3!B,!2!D]2 [!2!^C!1!E]2 | %17
 [!3!A,!2!D!1!F]2 !>![!2!_E!1!_A]3/2 !1!G/ !1!G2 !1!F2 | %18
 !1!E2!<(! !1!G !1!G/ !1!c/!<)!!>(! !1!c2 !1!c3/2!>)! !1!B/ | %19
 !1!A !1!^A !>![!2!^F!1!B]3/2 !1!=A/ !1!G2 !>!!1!=F2 | !1!E2 !1!E3/2 !1!E/ !1!A2 !1!G2 | %21
 !>!!1!G2 !>!!1!F2 [!3!G,!2!^C!1!E]2 [!3!A,!2!D]2 | %22
 !2!D2 !2!C2 (3:2:2!2!C2 !2!B, (3:2:2!1!E2 !fermata!!2!D || !1!E2 !1!E3/2 !1!E/ !1!E2 !1!E2 | %24
 !1!A2 !1!_A2 !1!G !1!F !1!E3/2 !2!D/ | %25
 (3!6!x/ !2!C/ !2!C/ (3!5!x/ !2!C/ !2!C/ (3!4!x/ !2!C/ !2!C/ (3!6!G,,/ !2!C/ !2!C/ (3!6!F,,/ !2!C/ !2!C/ (3!5!x/!<(! !2!C/ !2!C/ (3!4!x/ !2!C/ !2!C/ (3!5!x/ !2!D/ !2!D/!<)! | %26
 !1!E2 !1!E4 x !1!F | !1!E2 !1!E3/2 !1!E/!<(! !1!A2!<)!!>(! !1!G2!>)! | !1!G2 !1!_F2 !1!E2 x2 | %29
 x4 !1!E2 !1!E3/2 !2!D/ | %30
 [!4!E,!2!C] (3!1!E/ !2!C/ !3!G,/ (6:4:6!2!C/ !3!G,/ !4!E,/ !3!G,/ !2!C/ !1!E/ [!4!E,!2!C]2 x2 | %31
 (3!6!G,,/ !2!D/ !2!D/ (3!2!x/ !2!D/ !2!D/ (3!3!x/ !2!D/ !2!D/ (3!2!x/ !2!D/ !2!D/ (6:4:6!6!G,,/ !3!B,/ !2!D/ !4!G,/ !3!B,/ !2!D/ (6:4:6!6!x/ !2!^C/ !1!E/ !3!A,/ !2!C/ !1!E/ | %32
 (6:4:6!5!x/ !3!A,/ !2!D/ !>!!1!F/ !2!D/ !3!A,/ (6:4:6!6!x/ !3!A,/ !2!D/ !>!!1!F/ !2!D/ !3!A,/ (6:4:6!6!x/ !3!G,/ !2!D/ !>!!1!F/ !2!D/ !3!G,/ !1!G !1!F | %33
 !1!E2 !1!G2 !1!c2 !1!B2 | !1!A2 !1!B !1!A !1!G2 !1!F2 | !1!E2 !1!E3/2 !1!E/ !1!A2 !1!=G2 | %36
 !>!!1!G2 !>!!1!F2 !>!!1!E2 x2 | x4 !1!E2 !1!E3/2 !2!D/ | %38
!<(! !2!C !2!B, !2!C !2!D!<)!!>(! !1!E !2!B, !2!C !1!E!>)! | %39
 !1!G !1!^F !1!G !1!^G !1!A !1!=G !1!A !1!B | !1!c !2!B, !2!C !2!D !1!E !2!B, !2!C !1!E | %41
 !1!G !1!^F !1!G !1!^G !1!A !1!=G !1!A !1!B | !>!!1!d !>!!1!^c !>!!1!=c !1!E !1!E !2!D !1!E !1!F | %43
 !2!C !1!^G !1!=G !1!G !1!G !1!=G !1!G !1!G | !1!c !1!c !1!c !1!c !1!A !1!A !1!A !1!A | %45
 !1!G !1!G !1!G !1!G !1!G !1!G !1!G !1!G | !2!C !1!G !1!G !1!G !2!C !1!G !1!G !1!G | %47
 !2!C2 x2 [!2!C!1!E]2!<(! ([!2!C!1!G] !1!c)!<)! | !fermata![!6!C,!5!G,!3!E!1!c]8 |] %49
V:4
 !5!C,2 !4!E,2 [!5!C,!3!G,]2 [!4!G,!3!C]2 | !6!G,,2 [!4!F,!3!G,]2 !6!G,,2 [!4!F,!3!G,]2 | %2
 !5!A,,2 !6!G,,2 !6!F,,2 !6!F,,2 | %3
 [!6!E,,!5!B,,]2 (3!4!E, !4!^D, !4!E, !>!!4!F,3/2 !4!E,/ !4!E, !4!=D, | %4
 !5!C,2 !3!G,2 !5!A,,2 !3!A,2 | %5
 (3:2:1!4!D,3- (3!4!D, x x (3!4!E, !4!^D, !4!E, (3!4!F, !6!E,, !6!F,, | !6!G,,4 !6!G,,4 | %7
 !5!C,4 !5!C,2 x2 | !6!G,,2 !4!G,3/2 !4!^F,/ !4!=F,2 !4!E,2 | !4!D,2 !5!C,2 !5!B,,2 !6!G,,2 | %10
 !5!C,2 !5!B,, x !5!A,,4 | !4!D,4 !6!G,,4 | !5!C,2 (3!5!C,!<(! !5!B,, !5!_B,,!<)! !5!A,,4 | %13
 (3:2:1!4!D,3- (3!4!D, x x (3!4!E, !4!^D, !4!E, (3!4!F, !6!E,, !6!F,, | !6!G,,4 !6!G,,4 | %15
 !5!C,4 !5!C,2 x2 | !6!G,,2 !4!G,3/2 !4!^F,/ !4!=F,2 !4!E,2 | !4!D,2 !5!C,2 !5!B,,2 !6!G,,2 | %18
 !5!C,2 !5!B,, x !5!A,,4 | !4!D,4 !6!G,,4 | !5!C,2 (3!5!C, !5!B,, !5!_B,, !5!A,,4 | %21
 (3:2:1!4!D,3- (3!4!D, x x (3!4!E, !4!^D, !4!E, (3!4!F, !6!E,, !6!F,, | !6!G,,4 !6!G,,4 || %23
 !5!C,4 !5!C,4 | !>!!^!!6!G,,4 x4 | !5!A,, !4!E, !3!A, !6!G,, !>!!^!!6!F,, !4!F, !3!A, !4!F, | %26
 !6!E,,4 x4 | !5!C,2 x2 !5!A,,4 | x6 x !6!F,, | !6!G,, !4!E, !3!G, !4!E, !6!G,,4 | %30
 !5!C,4 !5!C,2 x2 | !6!G,, !3!B, !4!G, !3!B, !6!G,, x !5!A,, x | %32
 !4!D,2 !5!C,2 !5!B,,2 (6:4:6!6!G,,/ !2!B,/ !3!G,/ !4!D,/ !2!B,/ !3!G,/ | !5!C,2 !5!B,,2 !5!A,,4 | %34
 x2 x2 !5!B,,4 | !5!C,2 x2 !5!A,,4 | x6 x !6!F,, | !6!G,, !4!E, !4!E, !4!E, !6!G,,4 | %38
 [!5!C,!4!E,] (3!3!x/ !3!G,/ !4!E,/ (3!3!x/ !3!G,/ !4!E,/ (3!3!x/ !3!G,/ !4!E,/ (3!2!x/ !3!G,/ !4!E,/ (3!3!x/ !3!G,/ !4!E,/ (3!3!x/ !3!G,/ !4!E,/ (3!2!x/ !3!G,/ !4!E,/ | %39
 !6!G,,4 x4 | %40
 [!6!C,!3!G,] (3!3!x/ !3!G,/ !4!E,/ (3!3!x/ !3!G,/ !4!E,/ (3!3!x/ !3!G,/ !4!E,/ (3!2!x/ !3!G,/ !4!E,/ (3!3!x/ !3!G,/ !4!E,/ (3!3!x/ !3!G,/ !4!E,/ (3!2!x/ !3!G,/ !4!E,/ | %41
 !6!G,,4 x4 | %42
 [!6!C,!3!G,] (3!2!x/ !3!G,/ !6!C,/ (3!2!x/ !3!G,/ !6!C,/ (3!2!x/ !3!G,/ !6!E,,/ (3!6!F,,/ !3!A,/ !4!F,/ (3!3!x/ !3!A,/ !4!F,/ (3!2!x/ !3!A,/ !4!F,/ (3!2!D/ !3!A,/ !4!F,/ | %43
 x4 !6!G,,4 | !6!C,4 x4 | !6!G,,4 !6!G,,4 | %46
 [!5!C,!4!E,!3!G,] !6!G,,- !6!G,,2 [!5!C,!4!E,!3!G,] !6!G,,- !6!G,,2 | %47
 [!5!C,!4!E,!3!G,]2 x2 [!5!C,!4!E,!3!G,]2 [!5!C,!4!E,!3!G,]2 | x8 |] %49
V:5
 x8 | x8 | x8 | x8 | x3 x x4 | (3!1!A!4!B!1!^c (3!4!d!2!A!3!F x4 | %6
 z GEG (3z"_dol." !3!F!0!G (3BG!3!F | x8 | x6 !4!_B>!4!A | x2 x x dGAB | cGdG eA[ce]A | %11
 c2 c2 (3BG^G !>!A>B | (3cGE G2 z A^cA | (3AB^c (3dAF x4 | z GEG (3z"_dol." FG (3BGF | x8 | %16
 x6 !>!_B>A | x2 x x dGAB | cGdG eA[ce]!p!A | c2 c2 (3BG^G A>B | (3cGE G2 z A^cA | %21
 (3AB^c (3dAF x4 | z GEG (3z"_rit." FG (3BGF || %23
(6:4:6x/c/G/E/G/c/(6:4:6x/c/G/E/G/z/(6:4:6x/c/G/E/G/c/(6:4:6x/c/G/E/G/c/ | %24
(6:4:6!4!x/!0!B/!0!G/!0!D/G/B/(6:4:6!3!x/B/G/D/G/B/(6:4:6!2!x/B/G/x/B/G/(6:4:6x/B/G/E,/!1!^G/ x/ | %25
 x8 |(6:4:6x/B/^G/E/G/B/(6:4:6x/B/G/E/G/B/ (6:4:6E,/G/B/!p!E/G/B/ (6:4:6!0!D/!2!G/!0!B/!4!G,/B/G/ | %27
(6:4:6x/c/G/E/G/c/(6:4:6x/c/G/_B,/G/z/(6:4:6!4!x/!1!^c/!1!A/!1!E/A/c/(6:4:6!2!x/c/A/E/A/!p!c/ | %28
(6:4:6x/!2!^c/!3!_B/!0!D/!3!B/!2!c/(6:4:6x/!4!d/!2!A/D/A/d/(6:4:6x/!3!c/G/!2!E/G/c/ (6:4:6!3!F/!2!A/!4!d/x/A/d/ | %29
(3!3!x/!4!d/d/(3x/c/c/(3x/B/B/(3x/c/c/(6:4:6x/!0!B/!0!G/!3!F/G/B/(6:4:6x/B/G/F/G/ x/ | x8 | x8 | %32
 x8 |(6:4:6x/c/G/E/G/c/(6:4:6x/d/G/"^rit."D/G/d/(6:4:6x/e/c/A/c/e/(6:4:6x/e/c/A/c/e/ | %34
(6:4:6x/^f/c/D/c/f/(6:4:6x/f/c/D/c/f/(6:4:6!4!x/B/G/D/G/B/(6:4:6x/B/G/D/G/B/ | %35
(6:4:6x/c/G/E/G/c/(6:4:6x/c/G/_B,/G/x/(6:4:6x/!<(!^c/A/E/A/c/(6:4:6x/c/!<)!!mf!A/E/A/c/ | %36
(6:4:6x/^c/_B/D/B/c/(6:4:6x/d/A/D/A/d/(6:4:6x/c/G/E/G/c/ (6:4:6F/A/d/x/A/d/ | %37
(3x/G/c/(3x/G/c/(3x/G/B/(3x/G/c/(6:4:6x/B/G/!3!F/G/B/(6:4:6x/B/G/F/G/ x/ | x8 | %39
 B(3B/G/D/ (3B/G/D/(3B/"^cresc."G/!mp!D/ (3B/G/!mf!D/(3B/G/!f!D/ (3B/G/!ff!D/(3B/G/D/ | x8 | %41
 B(3B/G/D/ (3B/G/D/(3B/"^cresc."G/!mp!D/ (3B/G/!mf!D/(3B/G/!f!D/ (3B/G/!ff!D/(3B/G/D/ | x8 | %43
 (3!3!G,/!0!G/!2!E/(3c/G/E/ (3c/G/E/(3c/G/E/ (3!0!B/!0!G/!2!F/(3B/G/F/ (3B/G/F/(3B/G/F/ | %44
 (3!1!e/!p!!1!G/"_cresc."!2!E/(3e/!mp!G/E/ (3e/G/E/(3e/G/E/ (3!1!d/!3!c/!1!F/(3d/c/F/ (3d/c/F/(3d/c/!p!F/ | %45
 (3c/G/E/(3c/G/E/ (3c/G/E/(3c/G/E/ (3B/G/!3!F/(3B/G/F/ (3B/G/F/(3B/G/F/ | %46
 (3:2:2x x/ (3B/G/"_rit."F/ (3B/G/F/(3B/G/F/ (3:2:2x x/ (3B/G/F/ (3B/G/F/(3B/G/F/ | x8 | x8 |] %49
V:6
 x8 | x8 | x8 | x8 | x3 x x4 | (3!3!A, !3!B, !2!^C (3!2!D !3!A, !4!F, x4 | %6
 x !3!G, !4!E, !3!G, (3x !4!F, !3!G, (3!2!B, !3!G, !4!F, | x8 | x6 !3!_B,3/2 !3!A,/ | %9
 x2 x x !2!D !3!G, !3!A, !2!B, | !2!C !3!G, !2!D !3!G, !2!E !4!A, [!3!C!2!E] !4!A, | %11
 !3!C2 !3!C2 (3!2!B, !3!G, !3!^G, !>!!3!A,3/2 !2!B,/ | %12
 (3!2!C !3!G, !4!E, !3!G,2 x !3!A, !2!^C !3!A, | (3!3!A, !3!B, !2!^C (3!2!D !3!A, !4!F, x4 | %14
 x !3!G, !4!E, !3!G, (3x !4!F, !3!G, (3!2!B, !3!G, !4!F, | x8 | x6 !>!!3!_B,3/2 !3!A,/ | %17
 x2 x x !2!D !3!G, !3!A, !2!B, | !2!C !3!G, !2!D !3!G, !2!E !4!A, [!3!C!2!E] !4!A, | %19
 !3!C2 !3!C2 (3!2!B, !3!G, !3!^G, !3!A,3/2 !2!B,/ | (3!2!C !3!G, !4!E, !3!G,2 x !3!A, !2!^C !3!A, | %21
 (3!3!A, !3!B, !2!^C (3!2!D !3!A, !4!F, x4 | %22
 x !3!G, !4!E, !3!G, (3x !4!F, !3!G, (3!2!B, !3!G, !4!F, || %23
 (6:4:6!2!x/ !2!C/ !3!G,/ !4!E,/ !3!G,/ !2!C/ (6:4:6!2!x/ !2!C/ !3!G,/ !4!E,/ !3!G,/ x/ (6:4:6!2!x/ !2!C/ !3!G,/ !4!E,/ !3!G,/ !2!C/ (6:4:6!2!x/ !2!C/ !3!G,/ !4!E,/ !3!G,/ !2!C/ | %24
 (6:4:6!2!x/ !2!B,/ !3!G,/ !4!D,/ !3!G,/ !2!B,/ (6:4:6!2!x/ !2!B,/ !3!G,/ !4!D,/ !3!G,/ !2!B,/ (6:4:6!2!x/ !2!B,/ !3!G,/ !2!x/ !2!B,/ !3!G,/ (6:4:6!2!x/ !2!B,/ !3!G,/ !6!E,,/ !3!^G,/ x/ | %25
 x8 | %26
 (6:4:6!2!x/ !2!B,/ !3!^G,/ !4!E,/ !3!G,/ !2!B,/ (6:4:6!2!x/ !2!B,/ !3!G,/ !4!E,/ !3!G,/ !2!B,/ (6:4:6!6!E,,/ !3!G,/ !2!B,/ !4!E,/ !3!G,/ !2!B,/ (6:4:6!4!D,/ !3!G,/ !2!B,/ !6!G,,/ !2!^B,/ !3!G,/ | %27
 (6:4:6!2!x/ !2!C/ !3!G,/ !4!E,/ !3!G,/ !2!C/ (6:4:6!2!x/ !2!C/ !3!G,/ !5!_B,,/ !3!G,/ x/ (6:4:6!2!x/ !2!^C/ !3!A,/ !4!E,/ !3!A,/ !2!C/ (6:4:6!2!x/ !2!C/ !3!A,/ !4!E,/ !3!A,/ !2!C/ | %28
 (6:4:6!2!x/ !2!^C/ !3!_B,/ !4!D,/ !3!B,/ !2!C/ (6:4:6!2!x/ !2!D/ !3!A,/ !4!D,/ !3!A,/ !2!D/ (6:4:6!2!x/ !2!C/ !3!G,/ !4!E,/ !3!G,/ !2!C/ (6:4:6!4!F,/ !3!A,/ !2!D/ !6!F,,/ !3!^A,/ !2!D/ | %29
 (3!6!G,,/ !2!D/ !2!D/ (3!5!x/ !2!C/ !2!C/ (3!4!x/ !2!B,/ !2!B,/ (3!5!x/ !2!C/ !2!C/ (6:4:6!2!x/ !2!B,/ !3!G,/ !4!F,/ !3!G,/ !2!B,/ (6:4:6!2!x/ !2!B,/ !3!G,/ !4!F,/ !3!G,/ x/ | %30
 x8 | x8 | x8 | %33
 (6:4:6!2!x/ !2!C/ !3!G,/ !4!E,/ !3!G,/ !2!C/ (6:4:6!2!x/ !2!D/ !3!G,/ !4!D,/ !3!G,/ !2!D/ (6:4:6!2!x/ !2!^E/ !3!C/ !4!A,/ !3!C/ !2!=E/ (6:4:6!2!x/ !2!E/ !3!C/ !4!A,/ !3!C/ !2!E/ | %34
 (6:4:6!2!x/ !2!^F/ !3!C/ !4!D,/ !3!C/ !2!F/ (6:4:6!2!x/ !2!F/ !3!C/ !4!D,/ !3!C/ !2!F/ (6:4:6!2!x/ !2!B,/ !3!G,/ !4!D,/ !3!G,/ !2!B,/ (6:4:6!2!x/ !2!B,/ !3!G,/ !4!D,/ !3!G,/ !2!B,/ | %35
 (6:4:6!2!x/ !2!^C/ !3!G,/ !4!E,/ !3!G,/ !2!=C/ (6:4:6!2!x/ !2!C/ !3!G,/ !5!_B,,/ !3!G,/ x/ (6:4:6!2!x/!<(! !2!^C/ !3!A,/ !4!E,/ !3!A,/ !2!C/ (6:4:6!2!x/ !2!C/!<)! !3!A,/ !4!E,/ !3!A,/ !2!C/ | %36
 (6:4:6!2!x/ !2!^C/ !3!_B,/ !4!D,/ !3!B,/ !2!C/ (6:4:6!2!x/ !2!D/ !3!A,/ !4!D,/ !3!A,/ !2!D/ (6:4:6!2!x/ !2!C/ !3!G,/ !4!E,/ !3!G,/ !2!C/ (6:4:6!4!F,/ !3!A,/ !2!D/ !6!F,,/ !3!A,/ !2!D/ | %37
 (3!6!G,,/ !3!G,/ !2!C/ (3!5!x/ !3!G,/ !2!C/ (3!5!x/ !3!G,/ !2!B,/ (3!5!x/ !3!G,/ !2!C/ (6:4:6!2!x/ !2!B,/ !3!G,/ !4!F,/ !3!G,/ !2!B,/ (6:4:6!2!x/ !2!B,/ !3!G,/ !4!F,/ !3!G,/ x/ | %38
 x8 | %39
 !2!B, (3!2!B,/ !3!G,/ !4!D,/ (3!2!B,/ !3!G,/ !4!D,/ (3!2!B,/ !3!G,/ !4!D,/ (3!2!B,/ !3!G,/ !4!D,/ (3!2!B,/ !3!G,/ !4!D,/ (3!2!B,/ !3!G,/ !4!D,/ (3!2!B,/ !3!G,/ !4!D,/ | %40
 x8 | %41
 !2!B, (3!2!B,/ !3!G,/ !4!D,/ (3!2!B,/ !3!G,/ !4!D,/ (3!2!B,/ !3!G,/ !4!D,/ (3!2!B,/ !3!G,/ !4!D,/ (3!2!B,/ !3!G,/ !4!D,/ (3!2!B,/ !3!G,/ !4!D,/ (3!2!B,/ !3!G,/ !4!D,/ | %42
 x8 | %43
 (3!6!G,,/ !3!G,/ !4!E,/ (3!2!C/ !3!G,/ !4!E,/ (3!2!C/ !3!G,/ !4!E,/ (3!2!C/ !3!G,/ !4!E,/ (3!2!B,/ !3!G,/ !4!F,/ (3!2!B,/ !3!G,/ !4!F,/ (3!2!B,/ !3!G,/ !4!F,/ (3!2!B,/ !3!G,/ !4!F,/ | %44
 (3!2!E/ !4!G,/ !5!E,/ (3!2!E/ !4!G,/ !5!E,/ (3!2!E/ !4!G,/ !5!E,/ (3!2!E/ !4!G,/ !5!E,/ (3!2!D/ !3!C/ !4!F,/ (3!2!D/ !3!C/ !4!F,/ (3!2!D/ !3!C/ !4!F,/ (3!2!D/ !3!C/ !4!F,/ | %45
 (3!2!C/ !3!G,/ !4!E,/ (3!2!C/ !3!G,/ !4!E,/ (3!2!C/ !3!G,/ !4!E,/ (3!2!C/ !3!G,/ !4!E,/ (3!2!B,/ !3!G,/ !4!F,/ (3!2!B,/ !3!G,/ !4!F,/ (3!2!B,/ !3!G,/ !4!F,/ (3!2!B,/ !3!G,/ !4!F,/ | %46
 (3:2:2x x/ (3!2!B,/ !3!G,/ !4!F,/ (3!2!B,/ !3!G,/ !4!F,/ (3!2!B,/ !3!G,/ !4!F,/ (3:2:2x x/ (3!2!B,/ !3!G,/ !4!F,/ (3!2!B,/ !3!G,/ !4!F,/ (3!2!B,/ !3!G,/ !4!F,/ | %47
 x8 | x8 |] %49

